X:1
T:Title
%%score { 1 | 2 }
L:1/8
Q:1/4=114
M:6/4
K:G
V:1 treble nm="Grand Piano"
V:2 treble 
V:1
 G3 A B2 B2 A2 G2 | G2 F2 G2 [FA]6 | [FA]3 [GB] [Ac]2 [Ac]2 [GB]2 [FA]2 | [FA]2 [EG]2 [FA]2 [GB]6 | %4
w: William~Edie~Marks * * * * *||||
 [GB]3 [Ac] [Bd]2 B2 A2 G2 | G2 A2 B2 [Ec]6 | [Ge]3 [Ge] [Ge]2 [Gd]2 [Ac]2 [GB]2 | %7
w: |||
 [Ac]2 [GB]2 [CFA]2 [B,G]6 | [FA]3 [GB] [Ac]2 [Ac]2 [GB]2 [FA]2 | B2 B2 e2 d6 | d3 c B2 B2 A2 G2 | %11
w: ||||
 G2 F2 G2 [FA]6 | [GB]3 [Ac] [Bd]2 B2 A2 G2 | G2 A2 B2 [Ec]6 | [Ge]3 [Ge] [Ge]2 [Gd]2 [Ac]2 [GB]2 | %15
w: ||||
[M:10/4] [Ac]2 [GB]2 [CFA]2 [B,G]6 z8 |] %16
w: |
V:2
 [G,B,D]3 [G,CD] [G,DG]2 [G,DG]2 [G,CD]2[K:bass] [G,B,D]2 | [G,B,D]2 [A,CD]2 [G,B,D]2 [D,D]6 | %2
 [D,D]3 [D,D] [D,D]2 [D,D]2 [D,D]2 [D,D]2 | [D,D]2 [D,D]2 [D,D]2[K:treble] [G,D]6 | %4
 [G,D]3 [G,D] [G,D]2 [G,DG]2 [G,CD]2 [G,B,D]2 | [G,B,]2 [G,CF]2 [G,D=F]2[K:bass] [C,C]6 | %6
 [C,C]3 [C,C] [C,C]2 [D,B,]2 [D,D]2 [D,D]2 | [D,D]2 [D,D]2 D,2 G,,6 | %8
 [D,D]3 [D,D] [D,D]2 [D,D]2 [D,D]2 [D,D]2 | [G,DG]2 [G,DG]2 [G,CG]2 [G,B,G]6 | %10
 [G,B,G]3 [G,EG] [G,DG]2 [G,DG]2[K:bass] [G,CD]2 [G,B,D]2 | [A,^C]2 [A,D]2 [A,CE]2 [D,D]6 | %12
 [G,D]3 [G,D] [G,D]2 [G,DG]2 [G,CD]2 [G,B,D]2 | [G,B,]2 [G,CF]2 [G,D=F]2[K:bass] [C,C]6 | %14
 [C,C]3 [C,C] [C,C]2 [D,B,]2 [D,D]2 [D,D]2 |[M:10/4] [D,D]2 [D,D]2 D,2 G,,6 z8 |] %16

